!!!OTL: Der Maedchenmoerder (Halewijn - Ulinger).
!!!OTL-incipit: Well will met Gert Olbert utriden gohn,
!!!ARE: Europa, Mitteleuropa, Deutschland (BRD), Westfalen
!!!YOR: 2, S. 70
!!    1842 aufgezeichnet
!!!SCT: Q0041A
!!!YEM: Copyright 1995, estate of Helmut Schaffrath.
**kern	**text
*ICvox	*
*M2/2	*
*k[b-]	*
*d:	*
{8dL	1._Well
8eJ	.
=1	=1
4f	will
8f	met
8f	Gert
8fL	Ol-
8aJ	.
8g	-bert
8f	ut-
=2	=2
8fL	-ri-
8eJ	.
4e	-den
4e}	gohn,
{8dL	Well
8eJ	.
=3	=3
4f	will
8f	met
8f	Gert
8fL	Ol-
8aJ	.
8g	-bert
8f	ut-
=4	=4
8fL	-ri-
8eJ	.
4e	-den
4e}	gohn,
{4c	de
=5	=5
4a	mot
4a	ſick
8aL	klei-
8ccJ	.
8b-	-den
8a	in
=6	=6
8aL	Sammt
8gJ	.
4g	un
4g}	Sei-
{8f	-den,
8g	de
=7	=7
4a	mot
4a	ſick
4a	ſchnö-
8g	-ren
8f	int
=8	=8
(6g	ro-
6f)	.
6e	-de
4d;}	Gold.
==	==
!!!AGN: Ballade, Verfuehrung, Mord, Mordversuch bzw. Rache
!!!ONB: ESAC (Essen Associative Code) Database: BALLADE
!!!AMT: simple duple
!!!AIN: vox
!!!EED: Helmut Schaffrath
!!!EEV: 1.0
!!@@COMMENT:"JbfVf 1, 96. Aufʒeichnung Annettes von Droſte (Weſtfalen) 1842"
!!@@END:
!!!source: Deutsche Volkslieder mit ihren Melodien. Herausgegeben vom Deutschen Volksliedarchiv. Zweiter Band Balladen. Berlin 1939.
!!!page: 70
!!!ENC: Anna Maria Matuszewska
!!!EEV: 2025/02/17
*-	*-
